brandFactory_export/2.Regular/Play_2Regular.svg

<?xml version="1.0" encoding="UTF-8"?>
<svg width="24px" height="24px" viewBox="0 0 24 24" version="1.1" xmlns="http://www.w3.org/2000/svg" xmlns:xlink="http://www.w3.org/1999/xlink">
    <title>2.Regular/Play_2Regular</title>
    <g id="Symbols" stroke="none" stroke-width="1" fill="none" fill-rule="evenodd">
        <g id="2.Regular/Play_2Regular" fill="#5CB615" fill-rule="nonzero">
            <path d="M11.794958,-5.32907052e-14 C15.5428571,-5.32907052e-14 18.4571429,0.978151261 20.4605042,2.90756303 C22.5411765,4.91092437 23.5932773,7.90252101 23.5932773,11.7983193 C23.5932773,15.6941176 22.5378151,18.6823529 20.4605042,20.6857143 C18.4571429,22.6151261 15.5428571,23.5932773 11.794958,23.5932773 C8.04705882,23.5932773 5.13277311,22.6151261 3.13277311,20.6857143 C1.05546218,18.6857143 0.00336134453,15.697479 0.00336134453,11.8016807 C0.00336134453,7.90588235 1.05546218,4.91428571 3.13277311,2.91092437 C5.13277311,0.981512605 8.05042017,-5.32907052e-14 11.794958,-5.32907052e-14 Z M11.794958,1.30756303 C4.83697479,1.30756303 1.30756303,4.83697479 1.30756303,11.8016807 C1.30756303,18.7596639 4.83697479,22.2890756 11.794958,22.2890756 C18.7563025,22.2890756 22.2890756,18.7596639 22.2890756,11.8016807 C22.2890756,4.84033613 18.7563025,1.30756303 11.794958,1.30756303 Z M8.72605042,6.66218487 L16.7092437,11.2705882 C16.8907563,11.3747899 17.0016807,11.5663866 17.0016807,11.7747899 C17.0016807,11.9831933 16.8907563,12.1747899 16.7092437,12.2789916 L8.72605042,16.8907563 C8.63529412,16.9411765 8.53445378,16.9680672 8.43697479,16.9680672 C8.33613445,16.9680672 8.23529412,16.9411765 8.14453782,16.8907563 C7.96302521,16.7865546 7.85210084,16.594958 7.85210084,16.3865546 L7.85210084,7.16638655 C7.85210084,6.95798319 7.96302521,6.76638655 8.14453782,6.66218487 C8.32605042,6.55798319 8.54789916,6.55798319 8.72605042,6.66218487 Z M9.01848739,8.17478992 L9.01848739,15.3747899 L15.2537815,11.7747899 L9.01848739,8.17478992 Z" id="Play_2Regular"></path>
        </g>
    </g>
</svg>

<svg width="24" height="24" viewBox="0 0 24 24" xmlns="http://www.w3.org/2000/svg"><path d="M11.795 0c3.748 0 6.662.978 8.666 2.908 2.08 2.003 3.132 4.995 3.132 8.89 0 3.896-1.055 6.884-3.132 8.888-2.004 1.93-4.918 2.907-8.666 2.907s-6.662-.978-8.662-2.907c-2.078-2-3.13-4.989-3.13-8.884 0-3.896 1.052-6.888 3.13-8.891C5.133.98 8.05 0 11.795 0zm0 1.308c-6.958 0-10.487 3.529-10.487 10.494 0 6.958 3.529 10.487 10.487 10.487 6.961 0 10.494-3.53 10.494-10.487 0-6.962-3.533-10.494-10.494-10.494zM8.726 6.662l7.983 4.609a.58.58 0 010 1.008l-7.983 4.612a.601.601 0 01-.289.077.58.58 0 01-.585-.582v-9.22c0-.208.111-.4.293-.504a.58.58 0 01.581 0zm.292 1.513v7.2l6.236-3.6-6.236-3.6z" fill="#5CB615" fill-rule="nonzero"/></svg>
